X:516
T:BEWARRP3- Beware of the Ripples
O:england
S:Oswald's CPC, bk. 11, c 1759
Q:1/4=120
L:1/8
M:6/8
K:F
F|DFFd2c|BGGG2F|DFF dcd|BFFF2||\
c|dcd fce|dcB GBc|dcd fcd|AFFF2|]


